X: 36438
T: Seasick Dee
R: slip jig
M: 9/8
K: Dmajor
M:7/8
D2 AD FGA|G2 GA GFG|GA dA cde|{e}dc AG FGE|
D2 AA FGA|G2 GA GFG|GA dA cde|{e}dc AG FGE|
D2 DD FGA|G2 GA GFG|GA dA cde|{e}dc AG FGE|
D2 DD FGA|G2 GA GFG|GA dA cde|{e}dc AG FGE||
D2 d2 def|e2 ef {f}edc|A2 dA cde|{e}dc AG FGE|
D2 d2 def|e2 ef {f}edc|da af fge|ef fd edc|
A2 d2 def|e2 ef {f}edc|A2 dA cde|{e}dc AG FGE|
D2 d2 def|e2 ef {f}edc|da a/a/a agg|gf f/f/f efd||

